16x16/actions/view-currency-list.svg

<svg id="svg16" version="1.1" viewBox="0 0 16 16" xmlns="http://www.w3.org/2000/svg">
    <style type="text/css" id="current-color-scheme">
        .ColorScheme-Text {
            color:#555e70;
        }
    </style>
<path
    d="m9.3847656 3.8984375-0.7695312 0.640625 2.3847656 2.8613281v1.5996094h-2v1h2v2h1v-2h2v-1h-2v-1.5996094l2.384766-2.8613281-0.769532-0.640625-2.115234 2.5390625-2.1152344-2.5390625zm-3.8847656 0.1015625c-1.385 0-2.5 1.115-2.5 2.5v0.5h-1v1h1v1h-1v1h1.0507812c0.2301966 1.144072 1.2353585 2 2.4492188 2h1.5v-1h-1.5c-0.4155 0-0.791375-0.166375-1.0625-0.4375-0.1561762-0.156176-0.272773-0.349257-0.3476562-0.5625h2.9101562v-1h-3v-1h3v-1h-3v-0.5c0-0.4155 0.166375-0.791375 0.4375-1.0625s0.647-0.4375 1.0625-0.4375h1.5v-1h-1.5z"
    class="ColorScheme-Text"
    fill="currentColor"
    />
</svg>

<svg viewBox="0 0 16 16" xmlns="http://www.w3.org/2000/svg"><path d="m9.385 3.898-.77.641L11 7.4V9H9v1h2v2h1v-2h2V9h-2V7.4l2.385-2.86-.77-.642-2.115 2.54-2.115-2.54zM5.5 4A2.495 2.495 0 0 0 3 6.5V7H2v1h1v1H2v1h1.05c.231 1.144 1.236 2 2.45 2H7v-1H5.5c-.415 0-.791-.166-1.063-.438A1.489 1.489 0 0 1 4.09 10H7V9H4V8h3V7H4v-.5A1.497 1.497 0 0 1 5.5 5H7V4H5.5z" fill="currentColor" style="color:#555e70"/></svg>
